style/elvis/src/icons/svg/src/phone-mobile-image.svg

<svg width="24" height="25" viewBox="0 0 24 25" fill="none" xmlns="http://www.w3.org/2000/svg">
<path d="M4.983 24.0276C3.063 24.0276 1.501 22.4648 1.5 20.5436V4.98871C1.5 3.0655 3.062 1.50171 4.983 1.50171H6.75C7.164 1.50171 7.5 1.8381 7.5 2.25257C7.5 2.66705 7.164 3.00343 6.75 3.00343H4.983C3.89 3.00343 3 3.89446 3 4.98871V18.0207H13.5V15.7681C13.5 15.3536 13.836 15.0172 14.25 15.0172C14.664 15.0172 15 15.3536 15 15.7681V20.5416C15 22.4638 13.438 24.0276 11.518 24.0276H4.983ZM3 20.5416C3 21.6358 3.89 22.5258 4.982 22.5258H11.517C12.61 22.5258 13.5 21.6358 13.5 20.5416V19.5224H3V20.5416Z" fill="black"/>
<path d="M13.875 5.25774C13.255 5.25774 12.75 4.75216 12.75 4.13145C12.75 3.53376 13.218 3.0412 13.816 3.00916C13.817 3.00916 13.863 3.00516 13.875 3.00516C14.495 3.00516 15 3.51074 15 4.13145C15 4.75216 14.495 5.25774 13.875 5.25774Z" fill="black"/>
<path d="M11.25 13.5172C10.009 13.5172 9 12.5061 9 11.2646V2.2543C9 1.01187 10.009 0.00170898 11.25 0.00170898H20.25C21.491 0.00170898 22.5 1.01187 22.5 2.2543V11.2646C22.5 12.5071 21.491 13.5172 20.25 13.5172H11.25ZM20.25 12.0155C20.664 12.0155 21 11.6791 21 11.2646V10.741L18.735 7.34014L16.734 10.1944C16.616 10.3636 16.431 10.4767 16.226 10.5068C16.19 10.5118 16.155 10.5138 16.121 10.5138C15.951 10.5138 15.784 10.4557 15.652 10.3496L14.416 9.35945L14.414 9.36045L12.65 12.0155H20.25ZM11.25 1.50343C10.836 1.50343 10.5 1.83982 10.5 2.2543V11.2646C10.5 11.551 10.661 11.8033 10.906 11.9294L13.167 8.5275C13.19 8.49246 13.215 8.45942 13.241 8.42538C13.492 8.11002 13.85 7.91179 14.248 7.86774C14.304 7.86173 14.362 7.85773 14.418 7.85773C14.755 7.85773 15.087 7.97386 15.352 8.18611L15.965 8.67667L17.507 6.47815C17.613 6.32597 17.747 6.19482 17.904 6.0897C18.152 5.92451 18.438 5.83741 18.733 5.83741C18.832 5.83741 18.933 5.84742 19.031 5.86744C19.424 5.94654 19.762 6.1738 19.984 6.50718L21 8.03393V2.2543C21 1.83982 20.664 1.50343 20.25 1.50343H11.25Z" fill="black"/>
</svg>

<svg width="24" height="25" fill="none" xmlns="http://www.w3.org/2000/svg"><path d="M4.983 24.028A3.488 3.488 0 011.5 20.544V4.989a3.488 3.488 0 013.483-3.487H6.75a.75.75 0 010 1.501H4.983A1.987 1.987 0 003 4.99v13.03h10.5v-2.253a.75.75 0 111.5 0v4.774a3.488 3.488 0 01-3.482 3.486H4.983zM3 20.542c0 1.094.89 1.984 1.982 1.984h6.535c1.093 0 1.983-.89 1.983-1.984v-1.02H3v1.02zM13.875 5.258a1.125 1.125 0 11-.059-2.249l.059-.004a1.127 1.127 0 010 2.253z" fill="#1B314B"/><path d="M11.25 13.517A2.254 2.254 0 019 11.265v-9.01A2.253 2.253 0 0111.25.001h9c1.241 0 2.25 1.01 2.25 2.252v9.01a2.253 2.253 0 01-2.25 2.253h-9zm9-1.502a.75.75 0 00.75-.75v-.524l-2.265-3.4-2.001 2.853a.753.753 0 01-.613.32.751.751 0 01-.469-.164l-1.236-.99h-.002l-1.764 2.655h7.6zm-9-10.512a.75.75 0 00-.75.751v9.01c0 .287.161.54.406.665l2.261-3.402a1.49 1.49 0 011.251-.67 1.5 1.5 0 01.934.33l.613.49 1.542-2.199a1.497 1.497 0 011.524-.61c.393.079.731.306.953.64L21 8.033v-5.78a.75.75 0 00-.75-.75h-9z" fill="#1B314B"/></svg>
